Sources/FrostedUI/Resources/Icons.xcassets/profileX32.imageset/profile-x-32.svg

<svg width="32" height="32" viewBox="0 0 32 32" fill="none" xmlns="http://www.w3.org/2000/svg" data-fui-icon="true">
  <path
    d="M16.0017 16.917C16.7407 16.917 17.4549 16.9848 18.1404 17.1143C18.5474 17.1911 18.8149 17.5832 18.738 17.9902C18.6609 18.3969 18.2689 18.6647 17.8621 18.5879C17.2703 18.4761 16.6493 18.417 16.0017 18.417C15.9399 18.417 15.8783 18.4178 15.8181 18.4189H15.8171C15.6853 18.4212 15.5543 18.4254 15.4246 18.4326C15.3128 18.4388 15.2016 18.4473 15.0916 18.457C15.0721 18.4588 15.0524 18.4611 15.033 18.4629C14.9452 18.4712 14.8579 18.4807 14.7712 18.4912C14.7316 18.496 14.6916 18.4996 14.6521 18.5049C14.4423 18.5329 14.2359 18.5686 14.033 18.6094C13.9859 18.6188 13.939 18.6295 13.8923 18.6396C13.8223 18.6548 13.7525 18.6708 13.6833 18.6875C10.6545 19.4182 8.39765 21.574 7.34839 24.4111C7.17797 24.8722 7.28189 25.3051 7.56812 25.6465C7.86471 26 8.35983 26.2499 8.92944 26.25H16.3347C16.7488 26.25 17.0845 26.5859 17.0847 27C17.0846 27.4141 16.7488 27.75 16.3347 27.75H8.92944C7.92811 27.7499 7.00782 27.3127 6.4187 26.6104C5.81931 25.8955 5.56687 24.903 5.94116 23.8906C7.13307 20.6679 9.69653 18.1826 13.1169 17.2832C13.1265 17.2803 13.1365 17.277 13.1462 17.2744C13.1653 17.2695 13.1847 17.2646 13.2039 17.2598C13.2424 17.25 13.2813 17.2408 13.3201 17.2314C13.4042 17.2111 13.4889 17.1913 13.574 17.1729C13.6181 17.1633 13.6624 17.1536 13.7068 17.1445C13.7983 17.1259 13.8906 17.1082 13.9832 17.0918C14.0179 17.0856 14.0528 17.0791 14.0876 17.0732C14.2107 17.0526 14.3349 17.0342 14.4597 17.0176C14.4963 17.0127 14.5333 17.0094 14.5701 17.0049C14.6655 16.9931 14.7617 16.9821 14.8582 16.9727C14.8958 16.969 14.9337 16.9652 14.9714 16.9619C15.0737 16.953 15.1767 16.9457 15.28 16.9395C15.3031 16.9381 15.3263 16.9358 15.3494 16.9346L15.447 16.9297C15.5609 16.9244 15.6756 16.921 15.7908 16.9189L16.0017 16.917ZM26.1375 20.8037C26.4303 20.5108 26.9051 20.5108 27.198 20.8037C27.4908 21.0966 27.4909 21.5714 27.198 21.8643L25.0613 24L27.198 26.1367C27.4908 26.4296 27.4909 26.9044 27.198 27.1973C26.9051 27.4897 26.4302 27.49 26.1375 27.1973L24.0007 25.0605L21.865 27.1973C21.5721 27.4899 21.0973 27.49 20.8044 27.1973C20.5116 26.9045 20.5118 26.4296 20.8044 26.1367L22.9402 24L20.8044 21.8643C20.5117 21.5715 20.5119 21.0966 20.8044 20.8037C21.0973 20.5108 21.5721 20.5108 21.865 20.8037L24.0007 22.9395L26.1375 20.8037ZM16.0017 2.91699C19.1771 2.91719 21.7517 5.49146 21.7517 8.66699C21.7515 11.8424 19.177 14.4168 16.0017 14.417C12.8262 14.4169 10.2519 11.8424 10.2517 8.66699C10.2517 5.49142 12.8261 2.9171 16.0017 2.91699ZM16.0017 4.41699C13.6546 4.4171 11.7517 6.31985 11.7517 8.66699C11.7519 11.014 13.6547 12.9169 16.0017 12.917C18.3486 12.9168 20.2515 11.0139 20.2517 8.66699C20.2517 6.31991 18.3487 4.41719 16.0017 4.41699Z"
    fill="currentColor"
  />
</svg>

<svg xmlns="http://www.w3.org/2000/svg" width="32" height="32" fill="none" data-fui-icon="true" viewBox="0 0 32 32"><path fill="currentColor" d="M16.002 16.917q1.11.002 2.138.197a.75.75 0 1 1-.278 1.474 10 10 0 0 0-2.044-.17 10 10 0 0 0-.726.039l-.059.006q-.132.012-.262.028l-.119.014q-.315.043-.619.104l-.14.03-.21.049c-3.028.73-5.285 2.886-6.335 5.723-.17.461-.066.894.22 1.235.297.354.792.604 1.361.604h7.406a.75.75 0 0 1 0 1.5H8.929c-1 0-1.921-.437-2.51-1.14-.6-.715-.852-1.707-.478-2.72 1.192-3.222 3.756-5.707 7.176-6.607l.03-.009.057-.014.116-.029q.126-.03.254-.058.066-.016.133-.028.137-.03.276-.053l.105-.019q.184-.03.372-.055l.11-.013q.143-.018.288-.032l.113-.011q.154-.013.309-.023.034-.001.07-.004l.097-.005q.171-.008.344-.011zm10.136 3.887a.75.75 0 1 1 1.06 1.06L25.061 24l2.137 2.137a.75.75 0 0 1-1.06 1.06L24 25.061l-2.136 2.136a.75.75 0 0 1-1.06-1.06L22.94 24l-2.136-2.136a.75.75 0 0 1 1.061-1.06l2.136 2.136zM16.002 2.917a5.75 5.75 0 1 1-.001 11.5 5.75 5.75 0 0 1 0-11.5m0 1.5a4.25 4.25 0 1 0 0 8.5 4.25 4.25 0 0 0 0-8.5"/></svg>
